image/twiter.svg

<svg width="16" height="16" viewBox="0 0 16 16" fill="none" xmlns="http://www.w3.org/2000/svg">
<g clip-path="url(#clip0_1_391)">
<path d="M16 4.63839C15.4284 4.89168 14.822 5.05785 14.2011 5.13134C14.8553 4.7402 15.3446 4.12434 15.5779 3.39877C14.9632 3.76365 14.2907 4.02081 13.5893 4.15915C13.2963 3.84623 12.942 3.59689 12.5486 3.42664C12.1551 3.25638 11.7308 3.16883 11.3021 3.16944C9.28 3.16944 7.79353 5.05667 8.25067 7.01553C7.00515 6.95315 5.78668 6.6295 4.67438 6.0656C3.56207 5.5017 2.5808 4.71017 1.79429 3.74239C1.39374 4.43214 1.271 5.24858 1.45103 6.02562C1.63107 6.80266 2.10035 7.48193 2.76343 7.92525C2.26627 7.90938 1.78011 7.77484 1.34553 7.53287C1.31124 8.98429 2.35124 10.342 3.85753 10.6445C3.39612 10.7698 2.91219 10.788 2.44267 10.6978C2.64265 11.3203 3.0323 11.8647 3.55706 12.2548C4.08181 12.6448 4.71541 12.861 5.36914 12.8731C4.05614 13.9028 2.38818 14.3695 0.73143 14.1706C2.16392 15.0909 3.83106 15.5795 5.53372 15.5778C11.3493 15.5778 14.6354 10.6658 14.4366 6.25972C15.0497 5.81652 15.5791 5.26778 16 4.63915V4.63839Z" fill="black"/>
</g>
<defs>
<clipPath id="clip0_1_391">
<rect width="16" height="16" fill="white"/>
</clipPath>
</defs>
</svg>

<svg xmlns="http://www.w3.org/2000/svg" width="16" height="16" fill="none"><g clip-path="url(#a)"><path fill="#000" d="M16 4.638a6.255 6.255 0 0 1-1.799.493A3.137 3.137 0 0 0 15.578 3.4a6.274 6.274 0 0 1-1.989.76 3.127 3.127 0 0 0-2.287-.99 3.135 3.135 0 0 0-3.051 3.847 8.893 8.893 0 0 1-6.457-3.274 3.137 3.137 0 0 0 .97 4.183 3.12 3.12 0 0 1-1.418-.392c-.035 1.451 1.005 2.809 2.512 3.112a3.139 3.139 0 0 1-1.415.053 3.135 3.135 0 0 0 2.926 2.175 6.299 6.299 0 0 1-4.638 1.298 8.868 8.868 0 0 0 4.803 1.407c5.815 0 9.101-4.912 8.903-9.318A6.379 6.379 0 0 0 16 4.64v-.002Z"/></g><defs><clipPath id="a"><path fill="#fff" d="M0 0h16v16H0z"/></clipPath></defs></svg>
